nameplates/doorman.svg

<svg width="1502" height="386" viewBox="0 0 1502 386" fill="none" xmlns="http://www.w3.org/2000/svg">
<g clip-path="url(#clip0_22600_20)">
<path d="M157.515 98.9349C157.515 90.9896 157.515 85.5476 157.298 82.5001C157.08 79.888 156.1 78.6908 154.576 78.6908C152.834 78.6908 151.964 79.888 151.746 82.5001C151.528 85.5476 151.528 90.9896 151.528 98.9349H157.406H157.515Z" fill="white"/>
<path d="M97.2088 0C43.5426 0 6.10352e-05 43.5357 6.10352e-05 97.1934C6.10352e-05 150.851 43.5426 194.387 97.2088 194.387C150.875 194.387 194.418 150.851 194.418 97.1934C194.418 43.5357 150.875 0 97.2088 0ZM76.5261 89.7924H74.7844C71.9541 80.8676 66.9467 69.8748 63.3545 65.0859C62.2659 63.671 61.6128 63.2356 59.5445 63.2356V124.077H33.7455V63.2356C31.6773 63.2356 30.9153 63.671 29.9356 65.0859C26.3433 69.8748 21.2271 80.8676 18.5056 89.7924H16.7639V61.3853H76.7438V89.7924H76.5261ZM126.491 124.077H107.115V85.33C107.115 83.5885 105.808 82.2825 103.958 82.2825C102.107 82.2825 100.801 83.5885 100.801 85.33V124.077H81.4246V61.3853H100.801V81.7383C102.978 79.4526 106.679 77.167 112.666 77.167C117.783 77.167 122.028 79.4526 124.423 83.262C125.947 85.6565 126.491 88.5951 126.491 91.7515V124.077ZM154.576 125.492C141.622 125.492 130.954 114.608 130.954 101.329C130.954 88.0509 141.622 77.167 154.576 77.167C167.53 77.167 178.089 87.1802 178.089 100.567H151.637C151.637 107.207 151.855 110.907 153.814 114.064C155.774 117.22 159.366 119.723 163.285 119.723C171.122 119.723 175.15 112.866 176.565 107.098H178.198C176.021 117.438 168.292 125.492 154.685 125.492H154.576Z" fill="white"/>
<path d="M367.39 68.1334C363.254 53.6577 357.375 42.3385 349.973 34.2844C340.938 24.38 329.617 19.3734 316.228 19.3734H244.383L241.552 21.4413L240.028 26.5568L242.859 30.3661H255.921L177.327 370.924H163.393L160.563 372.992L159.039 378.108L161.869 381.917H243.947C296.742 381.917 328.637 328.368 346.054 283.526C366.193 231.828 375.337 170.769 375.337 135.94C375.337 109.057 372.724 86.2007 367.499 68.1334H367.39ZM335.169 57.4671C335.169 63.4533 334.189 70.9632 332.23 79.235L273.121 335.007C269.202 351.551 257.554 370.924 237.851 370.924H237.525L316.01 30.3661H317.207C328.637 30.3661 335.169 40.2705 335.169 57.4671Z" fill="white"/>
<path d="M707.566 66.2831C701.47 32.4341 690.04 15.2375 673.712 15.2375C649.11 15.2375 622.985 48.4335 605.459 76.1875C581.728 113.955 561.046 162.606 552.555 199.938C546.894 225.08 543.846 253.269 543.846 279.608C543.846 308.995 547.656 334.245 554.732 352.748C563.005 374.189 575.524 385.509 591.09 385.509C602.738 385.509 615.147 379.631 628.101 368.203C639.64 357.972 651.505 343.061 662.391 325.103C684.053 289.621 700.817 245.215 707.131 206.25C710.832 185.136 712.791 162.606 712.791 141.056C712.791 111.016 711.05 85.8742 707.457 66.2831H707.566ZM603.609 360.04C601.54 369.945 597.404 374.951 591.199 374.951C588.913 374.951 584.776 373.863 582.273 370.815C580.422 368.421 579.878 365.264 580.749 361.346L656.622 41.3589C659.67 28.2982 668.269 26.3391 673.059 26.3391C675.454 26.3391 677.195 26.9921 678.284 28.407C680.352 31.0192 680.352 36.1346 679.373 39.944L603.391 359.931L603.609 360.04Z" fill="white"/>
<path d="M539.492 66.2831C533.396 32.4341 521.966 15.2375 505.638 15.2375C481.036 15.2375 454.911 48.4335 437.385 76.1875C413.654 113.955 392.972 162.606 384.481 199.938C378.82 225.08 375.772 253.269 375.772 279.608C375.772 308.995 379.582 334.245 386.658 352.748C394.931 374.189 407.449 385.509 423.016 385.509C434.664 385.509 447.073 379.631 460.027 368.203C471.566 357.972 483.431 343.061 494.317 325.103C515.979 289.621 532.743 245.215 539.057 206.25C542.758 185.136 544.717 162.606 544.717 141.056C544.717 111.016 542.976 85.8742 539.383 66.2831H539.492ZM435.534 360.04C433.466 369.945 429.33 374.951 423.125 374.951C420.839 374.951 416.702 373.863 414.199 370.815C412.348 368.421 411.804 365.264 412.675 361.346L488.547 41.3589C491.595 28.2982 500.195 26.3391 504.985 26.3391C507.38 26.3391 509.121 26.9921 510.21 28.407C512.278 31.0192 512.278 36.1346 511.298 39.944L435.317 359.931L435.534 360.04Z" fill="white"/>
<path d="M867.259 359.17L864.428 361.346C863.122 366.244 848.209 369.292 843.31 369.292C841.46 369.292 840.807 368.747 840.48 368.203C838.412 365.591 839.936 358.516 840.48 355.795V355.578C844.181 341.755 847.665 329.565 850.821 318.899C859.094 290.818 865.082 270.466 865.082 244.888C865.082 228.889 859.748 213.107 849.624 199.176C842.331 189.054 832.969 180.564 822.519 174.578C868.783 168.048 901.331 132.022 901.331 85.4388C901.331 68.351 895.126 52.3517 883.914 40.4882C870.742 26.5568 851.474 19.2645 828.07 19.2645H753.177L750.238 21.659L749.258 26.7745L752.197 30.3661H765.26L686.666 370.924H672.188L669.249 373.319L668.269 378.434L671.208 382.026H758.402L761.341 379.631L762.321 374.516L759.382 370.924H746.864L791.821 175.667H799.006C804.122 177.952 807.932 182.088 810.436 188.074C813.048 194.387 813.484 200.917 813.484 204.291C813.484 219.964 809.021 236.617 804.34 254.14C799.332 272.86 794.107 292.233 794.107 311.716C794.107 317.702 794.651 338.599 801.401 356.993C808.367 375.713 819.688 385.509 834.275 385.509C843.093 385.509 852.89 383.114 861.054 378.978C869.871 374.516 875.532 368.747 876.947 362.761L874.008 359.061H867.368L867.259 359.17ZM848.535 53.3312C848.535 63.671 842.657 103.18 828.941 134.634C816.858 162.062 803.36 163.803 794.651 163.912L825.349 30.2573H832.642C843.201 30.2573 848.535 37.9849 848.535 53.2224V53.3312Z" fill="white"/>
<path d="M1145.39 19.2645H1074.52L1071.69 21.2236L995.491 237.814L1014.76 22.5297L1011.82 19.2645H944.002L941.172 21.3325L939.648 26.4479L942.478 30.2573H955.541L890.663 304.314C885.546 325.647 877.818 343.17 868.565 354.925C860.401 365.264 851.366 370.815 842.548 370.815H840.045L837.214 372.883L835.69 377.999L838.521 381.808H917.006L919.945 379.414L920.925 374.298L917.986 370.706H916.462C912.434 370.706 900.024 370.706 900.024 343.061C900.024 333.375 900.569 321.402 904.487 305.621L948.357 119.505L925.061 378.543L928 381.808H956.521L959.351 379.849L1044.26 139.532L990.919 370.706H976.442L973.502 373.101L972.523 378.216L975.462 381.808H1062.66L1065.49 379.74L1067.01 374.625L1064.18 370.815H1051.12L1129.71 30.2573H1144.19L1147.13 27.8628L1148.11 22.7474L1145.17 19.1557L1145.39 19.2645Z" fill="white"/>
<path d="M1250 370.924H1244.34C1241.62 370.924 1239.66 370.162 1238.13 368.53C1235.08 365.047 1235.19 358.299 1235.52 356.013L1285.92 22.8562L1282.98 19.4822H1242.7L1239.98 21.2237L1101.41 318.79C1088.56 346.653 1065.7 371.033 1052.64 371.033H1050.57L1047.63 373.427L1046.65 378.543L1049.59 382.135H1132.11L1135.05 379.74L1136.03 374.625L1133.09 371.033C1126.88 371.033 1123.18 369.727 1120.57 366.788C1117.3 362.979 1115.67 356.013 1115.67 345.456C1115.67 329.565 1120.13 310.192 1127.64 293.648L1156.93 230.195H1194.37L1174.45 361.782C1173.36 368.53 1168.79 370.924 1165.2 370.924H1160.08L1157.14 373.319L1156.16 378.434L1159.1 382.026H1248.8L1251.74 379.631L1252.72 374.516L1249.78 370.924H1250ZM1212.33 110.798L1196.44 217.025H1163.35L1212.33 110.798Z" fill="white"/>
<path d="M1499.17 19.3734H1421.23L1418.4 21.4413L1416.87 26.5568L1419.7 30.3661H1423.73C1427.76 30.3661 1440.17 30.3661 1440.17 58.0113C1440.17 67.698 1439.63 79.6703 1435.71 95.452L1398.8 251.963V22.312L1395.87 19.3734H1331.64L1328.81 21.4413L1327.29 26.5568L1330.12 30.3661H1343.18L1278.3 304.423C1273.08 325.865 1265.56 343.388 1256.53 355.034C1248.47 365.373 1239.55 370.924 1230.84 370.924L1228.01 372.992L1226.48 378.108L1229.31 381.917H1309.87L1312.7 379.849L1314.22 374.734L1311.39 370.924H1304.21C1300.18 370.924 1287.77 370.924 1287.77 343.279C1287.77 333.592 1288.32 321.62 1292.23 305.838L1341.33 97.9553L1340.89 378.978L1343.83 381.917H1379.97L1382.91 379.631L1449.2 96.8669C1454.32 75.5344 1462.05 58.1202 1471.52 46.2567C1479.68 36.0258 1489.05 30.3661 1497.75 30.3661L1500.59 28.2982L1502.11 23.1828L1499.28 19.3734H1499.17Z" fill="white"/>
</g>
<defs>
<clipPath id="clip0_22600_20">
<rect width="1502" height="385.509" fill="white"/>
</clipPath>
</defs>
</svg>

<svg xmlns="http://www.w3.org/2000/svg" width="1502" height="386" fill="none"><g fill="#fff" clip-path="url(#a)"><path d="M157.515 98.935c0-7.945 0-13.387-.217-16.435-.218-2.612-1.198-3.81-2.722-3.81-1.742 0-2.612 1.198-2.83 3.81-.218 3.048-.218 8.49-.218 16.435z"/><path d="M97.209 0C43.543 0 0 43.536 0 97.193c0 53.658 43.543 97.194 97.209 97.194s97.209-43.536 97.209-97.194C194.418 43.536 150.875 0 97.208 0M76.526 89.792h-1.742c-2.83-8.924-7.837-19.917-11.43-24.706-1.088-1.415-1.741-1.85-3.81-1.85v60.841H33.747V63.236c-2.069 0-2.83.435-3.81 1.85-3.593 4.789-8.709 15.782-11.43 24.706h-1.742V61.385h59.98v28.407zm49.965 34.285h-19.376V85.33c0-1.742-1.307-3.047-3.157-3.047s-3.157 1.305-3.157 3.047v38.747H81.425V61.385H100.8v20.353c2.177-2.285 5.878-4.571 11.865-4.571 5.117 0 9.362 2.286 11.757 6.095 1.524 2.394 2.068 5.333 2.068 8.49zm28.085 1.415c-12.954 0-23.622-10.884-23.622-24.163s10.668-24.162 23.622-24.162 23.513 10.013 23.513 23.4h-26.452c0 6.64.218 10.34 2.177 13.497s5.552 5.659 9.471 5.659c7.837 0 11.865-6.857 13.28-12.625h1.633c-2.177 10.34-9.906 18.394-23.513 18.394zM367.39 68.133c-4.136-14.475-10.015-25.794-17.417-33.849-9.035-9.904-20.356-14.91-33.745-14.91h-71.845l-2.831 2.067-1.524 5.116 2.831 3.81h13.062l-78.594 340.557h-13.934l-2.83 2.068-1.524 5.116 2.83 3.809h82.078c52.795 0 84.69-53.549 102.107-98.391 20.139-51.698 29.283-112.757 29.283-147.586 0-26.883-2.613-49.74-7.838-67.807zm-32.221-10.666c0 5.986-.98 13.496-2.939 21.768l-59.109 255.772c-3.919 16.544-15.567 35.917-35.27 35.917h-.326L316.01 30.366h1.197c11.43 0 17.962 9.904 17.962 27.101m372.397 8.816c-6.096-33.849-17.526-51.046-33.854-51.046-24.602 0-50.727 33.197-68.253 60.95-23.731 37.768-44.413 86.419-52.904 123.751-5.661 25.142-8.709 53.331-8.709 79.67 0 29.387 3.81 54.637 10.886 73.14 8.273 21.441 20.792 32.761 36.358 32.761 11.648 0 24.057-5.878 37.011-17.306 11.539-10.231 23.404-25.142 34.29-43.1 21.662-35.482 38.426-79.888 44.74-118.853 3.701-21.114 5.66-43.644 5.66-65.194 0-30.04-1.741-55.182-5.334-74.773zM603.609 360.04c-2.069 9.905-6.205 14.911-12.41 14.911-2.286 0-6.423-1.088-8.926-4.136-1.851-2.394-2.395-5.551-1.524-9.469l75.873-319.987c3.048-13.06 11.647-15.02 16.437-15.02 2.395 0 4.136.653 5.225 2.068 2.068 2.612 2.068 7.728 1.089 11.537l-75.982 319.987zM539.492 66.283c-6.096-33.849-17.526-51.046-33.854-51.046-24.602 0-50.727 33.197-68.253 60.95-23.731 37.768-44.413 86.419-52.904 123.751-5.661 25.142-8.709 53.331-8.709 79.67 0 29.387 3.81 54.637 10.886 73.14 8.273 21.441 20.791 32.761 36.358 32.761 11.648 0 24.057-5.878 37.011-17.306 11.539-10.231 23.404-25.142 34.29-43.1 21.662-35.482 38.426-79.888 44.74-118.853 3.701-21.114 5.66-43.644 5.66-65.194 0-30.04-1.741-55.182-5.334-74.773zM435.534 360.04c-2.068 9.905-6.204 14.911-12.409 14.911-2.286 0-6.423-1.088-8.926-4.136-1.851-2.394-2.395-5.551-1.524-9.469l75.872-319.987c3.048-13.06 11.648-15.02 16.438-15.02 2.395 0 4.136.653 5.225 2.068 2.068 2.612 2.068 7.728 1.088 11.537l-75.981 319.987z"/><path d="m867.259 359.17-2.831 2.176c-1.306 4.898-16.219 7.946-21.118 7.946-1.85 0-2.503-.545-2.83-1.089-2.068-2.612-.544-9.687 0-12.408v-.217a1452 1452 0 0 1 10.341-36.679c8.273-28.081 14.261-48.433 14.261-74.011 0-15.999-5.334-31.781-15.458-45.712-7.293-10.122-16.655-18.612-27.105-24.598 46.264-6.53 78.812-42.556 78.812-89.14 0-17.087-6.205-33.086-17.417-44.95-13.172-13.931-32.44-21.223-55.844-21.223h-74.893l-2.939 2.394-.98 5.116 2.939 3.591h13.063l-78.594 340.558h-14.478l-2.939 2.395-.98 5.115 2.939 3.592h87.194l2.939-2.395.98-5.115-2.939-3.592h-12.518l44.957-195.257h7.185q7.674 3.428 11.43 12.407c2.612 6.313 3.048 12.843 3.048 16.217 0 15.673-4.463 32.326-9.144 49.849-5.008 18.72-10.233 38.093-10.233 57.576 0 5.986.544 26.883 7.294 45.277 6.966 18.72 18.287 28.516 32.874 28.516 8.818 0 18.615-2.395 26.779-6.531 8.817-4.462 14.478-10.231 15.893-16.217l-2.939-3.7h-6.64zM848.535 53.331c0 10.34-5.878 49.849-19.594 81.303-12.083 27.428-25.581 29.169-34.29 29.278l30.698-133.655h7.293c10.559 0 15.893 7.728 15.893 22.965z"/><path d="M1145.39 19.265h-70.87l-2.83 1.959-76.199 216.59L1014.76 22.53l-2.94-3.265h-67.818l-2.83 2.067-1.524 5.116 2.83 3.81h13.063l-64.878 274.056c-5.117 21.333-12.845 38.856-22.098 50.611-8.164 10.339-17.199 15.89-26.017 15.89h-2.503l-2.831 2.068-1.524 5.116 2.831 3.809h78.485l2.939-2.394.98-5.116-2.939-3.592h-1.524c-4.028 0-16.438 0-16.438-27.645 0-9.686.545-21.659 4.463-37.44l43.87-186.116-23.296 259.038 2.939 3.265h28.521l2.83-1.959 84.909-240.317-53.341 231.174h-14.477l-2.94 2.395-.979 5.115 2.939 3.592h87.198l2.83-2.068 1.52-5.115-2.83-3.81h-13.06l78.59-340.558h14.48l2.94-2.394.98-5.116-2.94-3.591z"/><path d="M1250 370.924h-5.66c-2.72 0-4.68-.762-6.21-2.394-3.05-3.483-2.94-10.231-2.61-12.517l50.4-333.157-2.94-3.374h-40.28l-2.72 1.742-138.57 297.566c-12.85 27.863-35.71 52.243-48.77 52.243h-2.07l-2.94 2.394-.98 5.116 2.94 3.592h82.52l2.94-2.395.98-5.115-2.94-3.592c-6.21 0-9.91-1.306-12.52-4.245-3.27-3.809-4.9-10.775-4.9-21.332 0-15.891 4.46-35.264 11.97-51.808l29.29-63.453h37.44l-19.92 131.587c-1.09 6.748-5.66 9.142-9.25 9.142h-5.12l-2.94 2.395-.98 5.115 2.94 3.592h89.7l2.94-2.395.98-5.115-2.94-3.592zm-37.67-260.126-15.89 106.227h-33.09z"/><path d="M1499.17 19.373h-77.94l-2.83 2.068-1.53 5.116 2.83 3.81h4.03c4.03 0 16.44 0 16.44 27.644 0 9.687-.54 21.66-4.46 37.441l-36.91 156.511V22.312l-2.93-2.939h-64.23l-2.83 2.068-1.52 5.116 2.83 3.81h13.06l-64.88 274.056c-5.22 21.442-12.74 38.965-21.77 50.611-8.06 10.339-16.98 15.89-25.69 15.89l-2.83 2.068-1.53 5.116 2.83 3.809h80.56l2.83-2.068 1.52-5.115-2.83-3.81h-7.18c-4.03 0-16.44 0-16.44-27.645 0-9.687.55-21.659 4.46-37.441l49.1-207.883-.44 281.023 2.94 2.939h36.14l2.94-2.286 66.29-282.764c5.12-21.333 12.85-38.747 22.32-50.61 8.16-10.231 17.53-15.89 26.23-15.89l2.84-2.069 1.52-5.115-2.83-3.81z"/></g><defs><clipPath id="a"><path fill="#fff" d="M0 0h1502v385.509H0z"/></clipPath></defs></svg>
